www/assets/icons/report_problem.svg

<svg width="24" height="24" viewBox="0 0 24 24" xmlns="http://www.w3.org/2000/svg" fill='currentColor'><path d="M1 21.5H23L12 2.5L1 21.5ZM13 18.5H11V16.5H13V18.5ZM13 14.5H11V10.5H13V14.5Z"/></svg>

<svg xmlns="http://www.w3.org/2000/svg" width="24" height="24" viewBox="0 0 24 24" fill='currentColor'><path d="M1 21.5h22l-11-19zm12-3h-2v-2h2zm0-4h-2v-4h2z"/></svg>
